#define IWC_width 48
#define IWC_height 48
static unsigned char IWC_bits[] = {
   0x00, 0x00, 0x00, 0x00, 0x00, 0xf0, 0x00, 0x00, 0x00, 0x00, 0x00, 0xff,
   0x00, 0x00, 0x00, 0x18, 0xc0, 0xff, 0x00, 0x00, 0x00, 0x3c, 0xe0, 0xff,
   0x00, 0x00, 0x00, 0x3e, 0xf0, 0x7f, 0x00, 0x00, 0x00, 0x7f, 0xf0, 0x7f,
   0x00, 0x00, 0x00, 0xff, 0xf0, 0x7f, 0x00, 0x00, 0x00, 0xff, 0xf8, 0x7f,
   0x00, 0x00, 0x80, 0x7f, 0xf8, 0x3f, 0x00, 0x00, 0x80, 0x7f, 0xf8, 0x3f,
   0x00, 0x00, 0x80, 0x7f, 0xf8, 0x1f, 0x00, 0x00, 0x04, 0x7f, 0xf8, 0x0f,
   0x00, 0x00, 0x0e, 0x7f, 0xf8, 0x01, 0x00, 0x00, 0x1f, 0x7f, 0x00, 0x00,
   0x00, 0x80, 0x1f, 0x7e, 0x00, 0x00, 0x00, 0x80, 0x3f, 0xfc, 0x00, 0x00,
   0x00, 0xc0, 0x3f, 0xf8, 0x00, 0x03, 0x00, 0xc0, 0x7f, 0xf8, 0xff, 0x07,
   0x00, 0xc0, 0x7f, 0xfc, 0xff, 0x1f, 0x00, 0xc0, 0x7f, 0xfe, 0xff, 0x3f,
   0x00, 0xc0, 0x7f, 0xff, 0xff, 0x3f, 0x00, 0xc3, 0xff, 0x3f, 0xff, 0x1f,
   0x80, 0x87, 0xff, 0x1f, 0xfe, 0x0f, 0xc0, 0x87, 0xff, 0x0f, 0xfc, 0x07,
   0xe0, 0x0f, 0xff, 0x07, 0xe0, 0x00, 0xe0, 0x1f, 0xfe, 0x7f, 0x00, 0x00,
   0xe0, 0x1f, 0xfe, 0xff, 0x01, 0x00, 0xf0, 0x1f, 0xfe, 0xff, 0x07, 0x00,
   0xf0, 0x1f, 0xff, 0xff, 0x0f, 0x00, 0xf0, 0x9f, 0xff, 0xff, 0x1f, 0x00,
   0xf0, 0xff, 0xff, 0xff, 0x0f, 0x00, 0xe0, 0xff, 0x8f, 0xff, 0x07, 0x00,
   0xe0, 0xff, 0x07, 0xff, 0x03, 0x00, 0xc0, 0xff, 0x03, 0xfc, 0x00, 0x00,
   0x80, 0xff, 0x03, 0x00, 0x00, 0x00, 0x80, 0xff, 0x3f, 0x00, 0x00, 0x00,
   0x00, 0xff, 0xff, 0x00, 0x00, 0x00, 0x80, 0xff, 0xff, 0x03, 0x00, 0x00,
   0xc0, 0xff, 0xff, 0x07, 0x00, 0x00, 0xe0, 0xff, 0xff, 0x07, 0x00, 0x00,
   0xf0, 0xf7, 0xff, 0x03, 0x00, 0x00, 0xf8, 0xc3, 0xff, 0x01, 0x00, 0x00,
   0xfc, 0x81, 0xff, 0x00, 0x00, 0x00, 0xfe, 0x00, 0x1e, 0x00, 0x00, 0x00,
   0x7f, 0x00, 0x00, 0x00, 0x00, 0x00, 0x3f, 0x00, 0x00, 0x00, 0x00, 0x00,
   0x1e, 0x00, 0x00, 0x00, 0x00, 0x00, 0x0c, 0x00, 0x00, 0x00, 0x00, 0x00 };
